Suru++-Ubuntu/apps/symbolic/shotwell-symbolic.svg

<svg width="16" height="16" version="1.1" xmlns="http://www.w3.org/2000/svg">
 <g transform="translate(-122.99995,-175)">
  <path transform="translate(122.99995,175)" d="m1.09375 1.0625v11.03125h3.75l-0.875-3.0625h-2v-7.03125h7.0625v0.75l0.96875-0.25v-1.4375h-8.90625zm11.078125 1.7539062-8.2285156 2.2050782 2.7304687 10.19336 8.2304689-2.205078-2.732422-10.19336zm-0.662109 1.1054688 1.740234 6.498047-6.5253906 1.748047-1.7402344-6.496094 6.525391-1.75z" style="fill:#808080"/>
 </g>
</svg>

<svg xmlns="http://www.w3.org/2000/svg" width="16" height="16" version="1.1">
 <g transform="translate(-122.99995,-175)">
  <path style="fill:#808080" d="M 1.09375 1.0625 L 1.09375 12.09375 L 4.84375 12.09375 L 3.96875 9.03125 L 1.96875 9.03125 L 1.96875 2 L 9.03125 2 L 9.03125 2.75 L 10 2.5 L 10 1.0625 L 1.09375 1.0625 z M 12.171875 2.8164062 L 3.9433594 5.0214844 L 6.6738281 15.214844 L 14.904297 13.009766 L 12.171875 2.8164062 z M 11.509766 3.921875 L 13.25 10.419922 L 6.7246094 12.167969 L 4.984375 5.671875 L 11.509766 3.921875 z" transform="translate(122.99995,175)"/>
 </g>
</svg>
